X: 1
T: la Bastringue
C: trad. Qu\'ebec
R: reel, polka
Z: 2020 John Chambers <jc:trillian.mit.edu>
S: https://www.facebook.com/groups/Fiddletuneoftheday/ 2020-08-23
S: https://www.facebook.com/groups/Fiddletuneoftheday/photos/
M: C|
L: 1/8
K: D
|:\
"D"f2ff f2gf | "A"e2c2 "D"d3d |\
[1,3 "A"c2d2 efec | "D"d2e2 f2d2 :|\
[2   "G"g2 f/g/f e2d2 | "A"BABc "D"d2A2 :|\
[4   "G"g2 f/g/f e2d2 | "A"BABc "D"d2 A/B/c ||
|:\
"D"d2fd adfd | "C"=c/d/c ec gcec |\
[1,3 "D"d2fd adfa | "A"bgec "D"dcBA :|\
[2   "D"d2fd adfa | "A"bgec "D"dcBA :|\
[4   "D"Adfa "G"bgec | "A"dfec "D"d2A2 |]
